svg/icon/gari.svg

<svg width="60" height="60" viewBox="0 0 60 60" fill="none" xmlns="http://www.w3.org/2000/svg">
<path d="M49 34.8726V52.5159C47.3926 54.3199 45.2856 55.691 42.6428 56.593C39.9642 57.531 37.0713 58 33.9284 58C28.25 58 23.5 56.1601 19.6785 52.4798C16.7499 49.6654 14.9642 46.3461 14.2856 42.5216H12V39.5269H14.0001C13.9643 39.3104 13.9643 39.0578 13.9643 38.8052C13.9643 38.4806 13.9643 38.1558 14.0001 37.8312H12V34.8364H14.3571C15.0356 31.1562 16.7141 27.9452 19.4285 25.203C20.8928 23.6878 22.5356 22.4971 24.3213 21.6312C23.857 20.8734 23.5357 20.0436 23.2857 19.1416C23.1785 18.6725 23.1071 18.2035 23.0357 17.6983C22.9999 17.3376 22.9999 16.9406 22.9999 16.5437C22.9999 16.183 23.0357 15.8221 23.0713 15.4974C23.1071 15.2448 23.2499 15.1006 23.4642 15.0284C23.6784 14.9562 23.8928 14.9923 24.0357 15.1726C24.3571 15.4614 24.6786 15.75 24.9999 16.0026C25.1429 16.1469 25.2856 16.255 25.4284 16.3633C25.6427 16.4717 25.9285 16.4356 26.0358 16.2191C26.107 16.1469 26.107 16.0385 26.107 15.9665C26.107 15.6417 26.0714 15.353 26.0714 15.0284V14.8481C26.107 14.379 26.107 13.9099 26.1428 13.4408C26.25 12.214 26.4643 10.9874 26.8213 9.79666C27.1429 8.71431 27.6072 7.66812 28.2143 6.69387C28.7142 5.93606 29.3213 5.21441 30.0714 4.63727C30.8213 4.02397 31.6784 3.5548 32.607 3.19397C32.7856 3.15806 32.9998 3.08575 33.1785 3.01356C33.3213 2.9774 33.4641 3.01356 33.5714 3.12191C33.643 3.19397 33.7142 3.33835 33.6784 3.44657C33.6072 3.69905 33.5714 3.91562 33.5356 4.1681C33.4641 4.49302 33.3929 4.85371 33.3571 5.21441C33.3213 5.5392 33.2857 5.864 33.2857 6.18866C33.2499 6.51346 33.2499 6.83812 33.2499 7.12676C33.2857 7.88456 33.3929 8.60596 33.6072 9.29145C33.75 9.76062 33.9642 10.1935 34.25 10.5906C34.4999 10.879 34.75 11.1316 35.107 11.3482C35.4286 11.5285 35.8215 11.6368 36.1785 11.6007C36.5712 11.6007 36.8928 11.4564 37.2143 11.2761C37.5714 11.0597 37.8929 10.7709 38.1427 10.41C38.2499 10.2657 38.3215 10.1214 38.4285 9.97707C38.4643 9.94091 38.4643 9.90501 38.5 9.90501C38.6428 9.68856 38.9642 9.68856 39.107 9.90501C39.2498 10.1576 39.3929 10.41 39.5357 10.6626C39.8572 11.2761 40.1072 11.9616 40.25 12.647C40.2857 12.8996 40.3572 13.1882 40.3572 13.4408C40.3572 13.6934 40.3928 13.9099 40.3928 14.1264C40.3572 14.92 40.25 15.714 39.9642 16.4356C39.9285 16.5798 39.8929 16.6881 39.9285 16.8324C39.9999 17.1931 40.3572 17.3737 40.6785 17.2654C40.7501 17.2292 40.8213 17.1931 40.8927 17.157C41.1428 17.0128 41.3571 16.8324 41.5716 16.6159C41.6073 16.5798 41.6789 16.5437 41.7499 16.5437C41.8571 16.5437 41.9282 16.6159 41.9282 16.724V17.2292C41.9282 17.4096 41.8929 17.5902 41.8929 17.7344C41.8571 18.0951 41.8214 18.4199 41.7499 18.7446C41.5716 19.4662 41.3214 20.2239 41 20.9095C43.8569 21.9197 46.2857 23.6156 48.357 25.9606L42.5717 31.6613C40.1427 28.9914 37.0356 27.6565 33.3213 27.6565C30.0714 27.6565 27.4284 28.775 25.3571 30.9397C24.2501 32.0943 23.4285 33.3931 22.9287 34.8364H26V37.8312H22.2855C22.25 38.1558 22.25 38.4806 22.25 38.8052C22.25 39.0578 22.25 39.2743 22.2855 39.5269H26V42.5216H22.7856C23.2857 44.1453 24.1428 45.5524 25.3929 46.779C27.5 48.8718 30.3212 49.9541 33.8214 49.9541C37.0713 49.9541 39.4643 49.3408 40.9643 48.1501V42.6658H33.7856V34.8726H49Z" fill="#353535"/>
</svg>

<svg xmlns="http://www.w3.org/2000/svg" width="60" height="60" fill="none" viewBox="0 0 60 60"><path fill="#353535" d="M49 34.873v17.643c-1.607 1.804-3.714 3.175-6.357 4.077C39.964 57.531 37.07 58 33.928 58q-8.517 0-14.25-5.52c-2.928-2.815-4.714-6.134-5.392-9.958H12v-2.995h2c-.036-.217-.036-.47-.036-.722 0-.324 0-.65.036-.974h-2v-2.995h2.357c.679-3.68 2.357-6.89 5.072-9.633a17.3 17.3 0 0 1 4.892-3.572c-.464-.758-.785-1.587-1.035-2.49a17 17 0 0 1-.25-1.443C23 17.338 23 16.941 23 16.544c0-.361.036-.722.071-1.047a.54.54 0 0 1 .393-.469c.214-.072.429-.036.572.145.321.288.643.577.964.83.143.144.286.252.428.36.215.109.5.073.608-.144.071-.072.071-.18.071-.253 0-.324-.036-.613-.036-.938v-.18c.036-.469.036-.938.072-1.407a18 18 0 0 1 .678-3.644 12.7 12.7 0 0 1 1.393-3.103c.5-.758 1.107-1.48 1.857-2.057.75-.613 1.607-1.082 2.536-1.443a3.5 3.5 0 0 0 .572-.18.4.4 0 0 1 .392.108c.072.072.143.216.107.325a5 5 0 0 0-.142.721 9 9 0 0 0-.179 1.046c-.036.325-.071.65-.071.975-.036.324-.036.65-.036.938.036.758.143 1.479.357 2.164q.214.704.643 1.3c.25.288.5.54.857.757.322.18.715.289 1.072.253.392 0 .714-.145 1.035-.325.357-.216.679-.505.929-.866.107-.144.178-.289.285-.433.036-.036.036-.072.072-.072a.365.365 0 0 1 .607 0l.429.758a7.8 7.8 0 0 1 .714 1.984c.036.253.107.541.107.794 0 .252.036.469.036.685-.036.794-.143 1.588-.429 2.31-.035.144-.071.252-.035.396a.57.57 0 0 0 .75.433l.214-.108a3.2 3.2 0 0 0 .679-.541.27.27 0 0 1 .178-.072c.107 0 .178.072.178.18v.505c0 .18-.035.361-.035.505a9 9 0 0 1-.143 1.01A12 12 0 0 1 41 20.91c2.857 1.01 5.286 2.706 7.357 5.05l-5.785 5.701c-2.43-2.67-5.536-4.004-9.25-4.004-3.25 0-5.894 1.118-7.965 3.283-1.107 1.154-1.928 2.453-2.428 3.896H26v2.995h-3.715c-.035.325-.035.65-.035.974 0 .253 0 .47.035.722H26v2.995h-3.214c.5 1.623 1.357 3.03 2.607 4.257 2.107 2.093 4.928 3.175 8.428 3.175 3.25 0 5.643-.613 7.143-1.804v-5.484h-7.178v-7.793z"/></svg>
